T: Shoe The Donkey
M: 3/4
L: 1/8
K: Gmaj
|:DG B2 B2|DG B2 B2|DG B2 c2|B2 A4| - - -|:NN N2 N2|NN N2 N2|NN N2 N2|N2 N4|NN N2 N2|NN N2 N2|NN N2 N2|N2 N4:| |:NN N2 N2|N2 N4|NN N2 N2|N2 N4|NN N2 N2|N2 N4|NN N2 N2|N2 N4:|G |:ed e2 g2|ed e2 G2|ed e2 f2|d4 G2|ed e2 g2|ed e2 G2|dc d2 e2|1. c4 G2 :|2. c4 c2||BA G2 d2| d4 c2|BA G2 e2|e4 c2|BA G2 d2|d4 f2|1. ed cd ef| g4 c2:|2. ed c2 e2| c4 G2||
